X:1
T:Etude op. 21 no 12
T:Etude op. 21 no 12
T:Joachim Andersen
C:Joachim Andersen
L:1/8
Q:1/4=66
M:2/4
K:B
V:1 treble nm="Flûte" snm="Fl."
V:1
"^Allegro giusto"!p! (3(g/d/).d/(3(e/d/).d/ (3(g/d/).d/(3(a/d/).d/ | %1
 (3(b/d/).d/(3(d'/d/).d/ (3(a/d/).d/(3(b/d/).d/ | (3(g/d/).d/(3(e/c/).c/ (3(g/d/).d/(3(e/c/).c/ | %3
 (3(B/d/).d/(3(A/^^c/).c/ (3(=A/^c/).c/(3(G/B/).B/ | %4
!p! (3(C/b/).b/(3(d/b/).b/ (3(c/a/).a/(3(B/g/).g/ | %5
 (3(A/^^f/).f/(3(B/g/).g/ (3(A/^f/).f/(3(G/e/).e/ | %6
 (3(^^F/d/).d/(3(G/d/)!<(!.d/ (3(=A/d/).d/(3(^A/d/).d/ | %7
 (3(e/d/).d/(3(^^f/d/).d/!<)! (3(a/d/).d/(3(d'/d/).d/ | %8
!p! (3(g/d/).d/(3(e/d/).d/ (3(g/d/).d/(3(a/d/).d/ | %9
 (3(b/d/).d/(3(d'/d/).d/ (3(a/d/).d/(3(b/d/).d/ | (3(g/d/).d/(3(e/c/).c/ (3(g/d/).d/(3(e/c/).c/ | %11
!<(! (3(B/d/).d/(3(A/^^c/).c/ (3(=A/^c/).c/(3(G/B/).B/!<)! | %12
!mf! (3(=G/e/).e/(3(F/e/).e/ (3(A/c'/).c'/(3(c/e'/).e'/ | %13
!<(! (3(B/d'/).d'/(3(c/e'/).e'/ (3(^^c/^e'/).e'/(3(d/f'/).f'/!<)! | %14
!f! (3(g/e'/).e'/(3(=g/b/).b/!>(! (3(f/a/).a/(3(e/c'/).c'/ | %15
 (3(d/b/).b/(3(c'/b/).b/!>)! (3(d'/f'/).f'/"_dim."(3(c'/f'/).f'/ || %16
!p! (3(^b/f'/).f'/(3(g'/f'/).f'/ (3(a/f'/).f'/(3(b/f'/).f'/ | %17
 (3(c'/e'/).e'/(3(g/e'/).e'/ (3(=a/d'/).d'/(3(f/d'/).d'/ | %18
 (3(e/c'/).c'/(3(f/c'/).c'/ (3(^^f/c'/).c'/(3(g/^b/).b/ | %19
 (3(c'/e'/).e'/(3(d'/e'/).e'/ (3(c'/e'/).e'/(3(=b/e'/).e'/ | %20
 (3(a/e'/).e'/(3(f'/e'/).e'/ (3(g/e'/).e'/(3(a/e'/).e'/ | %21
 (3(b/=d'/).d'/(3(f/d'/).d'/ (3(=g/c'/).c'/(3(e/c'/).c'/ | %22
 (3(=d/b/).b/(3(e/b/).b/ (3(^e/b/).b/(3(f/a/).a/ | %23
 (3(b/=d'/).d'/(3(e'/d'/).d'/ (3(a/c'/).c'/(3(f/f'/).f'/ | %24
 (3(=a/=c'/).c'/(3(=d'/c'/).c'/ (3(g/b/).b/(3(e/e'/).e'/ | %25
 (3(=g/_b/).b/(3(f/=d'/).d'/ (3(=f/_a/).a/(3(e/=c'/).c'/ | %26
 (3(=d/=c'/).c'/(3(^d/c'/).c'/ (3(b/c'/).c'/(3(=a/b/).b/ | %27
 (3(g/b/).b/(3(e/e'/).e'/ (3(=g/=a/).a/(3(=A/c'/).c'/ | %28
 (3(f/=a/).a/(3(=d/=d'/).d'/ (3(=f/=g/).g/(3(=G/b/).b/ | %29
 (3(e/=g/).g/(3(=c/=c'/).c'/ (3(=d/b/).b/(3(c/=a/).a/ | %30
 (3(B/=g/).g/(3(=A/=f/).f/ (3(=G/e/).e/(3(=F/^d/).d/ | %31
 (3(E/e/).e/(3(G/e/).e/ (3(B/e/).e/(3(G/e/).e/ | %32
 (3(E/=f/).f/(3(=c/f/).f/ (3(B/f/).f/"_cresc."(3(=A/f/).f/ | %33
 (3(E/f/).f/(3(A/f/).f/ (3(c/f/).f/(3(A/f/).f/ | (3(E/=g/).g/(3(=d/g/).g/ (3(c/g/).g/(3(B/g/).g/ | %35
 (3(E/^g/).g/(3(^B/g/).g/ (3(E/=a/).a/(3(c/a/).a/ | %36
!<(! (3(E/^a/).a/(3(c/a/).a/ (3(E/b/).b/(3(^^c/b/).b/!<)! | %37
!p! (3(D/b/).b/(3(g/d/).d/ (3(a/d/).d/(3(b/d/).d/ | %38
 (3(c'/d/).d/(3(^^c'/g/).g/ (3(g/g/).g/(3(d'/^^f/).f/ | %39
!p! (3(g/d/).d/(3(e/d/).d/ (3(g/d/).d/(3(a/d/).d/ | %40
 (3(b/d/).d/(3(d'/d/).d/ (3(a/d/).d/(3(b/d/).d/ | (3(g/d/).d/(3(e/c/).c/ (3(g/d/).d/(3(e/c/).c/ | %42
!<(! (3(B/d/).d/(3(A/^^c/).c/ (3(=A/^c/).c/(3(G/B/).B/!<)! | %43
!p! (3(C/b/).b/(3(d/b/).b/ (3(c/a/).a/(3(B/g/).g/ | %44
 (3(A/^^f/).f/(3(B/g/).g/ (3(A/^f/).f/(3(G/e/).e/ | %45
 (3(^^F/d/).d/(3(G/d/).d/!<(! (3(=A/d/).d/(3(^A/d/).d/ | %46
 (3(e/d/).d/(3(^^f/d/).d/!<)! (3(a/d/).d/(3(d'/d/).d/ | %47
!p! (3(g/d/).d/(3(e/d/).d/ (3(g/d/).d/(3(a/d/).d/ | %48
 (3(b/d/).d/(3(d'/d/).d/ (3(a/d/).d/(3(b/d/).d/ | (3(g/d/).d/(3(e/c/).c/ (3(g/d/).d/(3(e/c/).c/ | %50
 (3(B/!<(!g/).g/(3(c/^^g/).g/ (3(^^c/a/).a/(3(d/b/).b/!<)! | %51
!mf! (3(f/d'/).d'/(3(e/c'/).c'/ (3(d/^b/).b/(3(f/d'/).d'/ | %52
!>(! (3(e/c'/).c'/(3(e/g/).g/ (3(c/e/).e/(3(G/c/).c/!>)! | %53
!p! (3(G/B/).B/(3(^^F/A/).A/ (3(F/e/).e/(3(F/d/).d/ | %54
!<(! (3(^F/c/).c/(3(F/^B/).B/ (3(B/=a/).a/(3(B/g/).g/!<)! | %55
!p! (3(E/g/).g/(3(F/g/).g/ (3(^^F/g/).g/(3(G/g/).g/ | %56
!<(! (3(a/d/).d/(3(b/d/).d/ (3(c'/d/).d/(3(^^c'/!<)!d'/).d'/ | %57
!f! (3(e'/c'/).c'/(3(f/c'/).c'/ (3(^^f/c'/).c'/(3(g/c'/).c'/ | %58
 (3(^^g/d/).d/(3(a/d/).d/ (3(b/d/).d/(3(c'/d/).d/ | %59
!mf! (3(d'/d/).d/(3(a/g/).g/ (3(^^f/e/).e/!>(!(3(a/d/).d/ | %60
 (3(d'/d/).d/(3(a/g/).g/ (3(^^f/e/).e/(3(a/d/).d/!>)! | %61
!p! (3(d'/g/).g/(3.g/.g/.g/ (3(b/d/).d/(3.d/.d/.d/ | %62
 (3(g/B/).B/(3.B/.B/.B/ (3(d/G/).G/(3(B/D/).D/ | (3(G/B/).B/(3(G/d/).d/ (3(B/g/)(d/(3b/)(g/d'/) | %64
 G4- |!p! G2 z2 |] %66

